Numix-GalliumOS/24/actions/stock_task-assigned.svg

<svg xmlns="http://www.w3.org/2000/svg" viewBox="0 0 24 24">
 <path d="m 18,5 c 1,0 1,0 1,1 l 0,14 c 0,1 0,1 -1,1 L 6,21 C 5,21 5,21 5,20 L 5,6 C 5,5 5,5 6,5" style="fill:#e6b07f;fill-opacity:1;stroke:none;fill-rule:evenodd"/>
 <path d="m 17 5 -10 0 l 0 14 10 0" style="fill:#fff;fill-opacity:1;stroke:none;fill-rule:nonzero"/>
 <path d="m 8 3 0 3.071 8 0 l 0 -3.071" style="fill:#aaa;fill-opacity:1;stroke:none;fill-rule:nonzero"/>
 <path d="m 12.25 15 -1.063 1 4.813 0 0 -1 -3.75 0" style="fill:#868686;fill-opacity:1;stroke:none;fill-rule:nonzero"/>
 <path d="M 10.125,17 9.0625,18 16,18 l 0,-1 -5.875,0 z" style="fill:#868686;fill-opacity:1;stroke:none;fill-rule:nonzero"/>
 <path d="m 14.375 11 1.063 1 0.563 0 0 -1 -1.625 0 z" style="fill:#868686;fill-opacity:1;stroke:none;fill-rule:nonzero"/>
 <path d="m 14.375 13 -1.063 1 2.688 0 0 -1 -1.625 0" style="fill:#868686;fill-opacity:1;stroke:none;fill-rule:nonzero"/>
 <path d="m 10.125 7 1.063 1 4.813 0 0 -1 -5.875 0" style="fill:#868686;fill-opacity:1;stroke:none;fill-rule:nonzero"/>
 <path d="m 12.25 9 1.063 1 2.688 0 0 -1 -3.75 0" style="fill:#868686;fill-opacity:1;stroke:none;fill-rule:nonzero"/>
 <path d="m 14 12 -5 -5 l 0 3 -5 0 0 4 5 0 0 3 z" style="fill:#859900;fill-opacity:1"/>
</svg>

<?xml version="1.0" encoding="UTF-8" standalone="no"?>
<svg
   xmlns:dc="http://purl.org/dc/elements/1.1/"
   xmlns:cc="http://creativecommons.org/ns#"
   xmlns:rdf="http://www.w3.org/1999/02/22-rdf-syntax-ns#"
   xmlns:svg="http://www.w3.org/2000/svg"
   xmlns="http://www.w3.org/2000/svg"
   xmlns:sodipodi="http://sodipodi.sourceforge.net/DTD/sodipodi-0.dtd"
   xmlns:inkscape="http://www.inkscape.org/namespaces/inkscape"
   viewBox="0 0 24 24"
   id="svg2"
   version="1.1"
   inkscape:version="0.91 r13725"
   sodipodi:docname="stock_task-assigned.svg"
   width="24"
   height="24">
  <metadata
     id="metadata98">
    <rdf:RDF>
      <cc:Work
         rdf:about="">
        <dc:format>image/svg+xml</dc:format>
        <dc:type
           rdf:resource="http://purl.org/dc/dcmitype/StillImage" />
        <dc:title></dc:title>
      </cc:Work>
    </rdf:RDF>
  </metadata>
  <sodipodi:namedview
     pagecolor="#ffffff"
     bordercolor="#666666"
     borderopacity="1"
     objecttolerance="10"
     gridtolerance="10"
     guidetolerance="10"
     inkscape:pageopacity="0"
     inkscape:pageshadow="2"
     inkscape:window-width="1262"
     inkscape:window-height="482"
     id="namedview96"
     showgrid="true"
     inkscape:zoom="19.666668"
     inkscape:cx="15.799883"
     inkscape:cy="7.0616239"
     inkscape:window-x="8"
     inkscape:window-y="532"
     inkscape:window-maximized="0"
     inkscape:current-layer="svg2"
     inkscape:object-nodes="true"
     inkscape:snap-smooth-nodes="true"
     showborder="true">
    <inkscape:grid
       type="xygrid"
       id="grid4360" />
  </sodipodi:namedview>
  <defs
     id="defs4">
    <path
       id="SVGCleanerId_0"
       d="m 14,12 20,0 c 1.105,0 2,0.895 2,2 l 0,20 c 0,1.105 -0.895,2 -2,2 l -20,0 c -1.105,0 -2,-0.895 -2,-2 l 0,-20 c 0,-1.105 0.895,-2 2,-2 m 0,0"
       inkscape:connector-curvature="0" />
    <clipPath
       id="clipPath-543229327">
      <g
         transform="translate(0,-1004.3622)"
         id="g3857">
        <path
           inkscape:connector-curvature="0"
           d="m -24,13 c 0,1.105 -0.672,2 -1.5,2 -0.828,0 -1.5,-0.895 -1.5,-2 0,-1.105 0.672,-2 1.5,-2 0.828,0 1.5,0.895 1.5,2 z"
           transform="matrix(15.333333,0,0,11.5,414.99999,878.8622)"
           style="fill:#1890d0"
           id="path3859" />
      </g>
    </clipPath>
  </defs>
  <g
     id="g34"
     transform="translate(-28.246094,-19)" />
  <path
     sodipodi:nodetypes="cssssssc"
     id="path3893-7"
     style="fill:#e6b07f;fill-opacity:1;fill-rule:evenodd;stroke:none"
     d="m 18,5 c 1,0 1,0 1,1 l 0,14 c 0,1 0,1 -1,1 L 6,21 C 5,21 5,21 5,20 L 5,6 C 5,5 5,5 6,5"
     inkscape:connector-curvature="0" />
  <path
     sodipodi:nodetypes="cccc"
     id="path3895-9"
     style="fill:#ffffff;fill-opacity:1;fill-rule:nonzero;stroke:none"
     d="m 17,4.9999995 -10,0 L 7,19 17,19"
     inkscape:connector-curvature="0" />
  <path
     sodipodi:nodetypes="cccc"
     id="path3897-0"
     style="fill:#aaaaaa;fill-opacity:1;fill-rule:nonzero;stroke:none"
     d="m 8,3 0,3.0714283 8,0 L 16,3"
     inkscape:connector-curvature="0" />
  <path
     style="fill:#868686;fill-opacity:1;fill-rule:nonzero;stroke:none"
     d="M 12.25,15 11.1875,16 16,16 16,15 12.25,15 Z"
     id="path3899-4"
     inkscape:connector-curvature="0" />
  <path
     style="fill:#868686;fill-opacity:1;fill-rule:nonzero;stroke:none"
     d="M 10.125,17 9.0625,18 16,18 l 0,-1 -5.875,0 z"
     id="path3901-9"
     inkscape:connector-curvature="0" />
  <g
     id="g34-5"
     transform="translate(1,-25)" />
  <path
     style="fill:#868686;fill-opacity:1;fill-rule:nonzero;stroke:none"
     d="m 14.375,11 1.0625,1 0.5625,0 0,-1 -1.625,0 z"
     id="path3899-5-8"
     inkscape:connector-curvature="0" />
  <path
     style="fill:#868686;fill-opacity:1;fill-rule:nonzero;stroke:none"
     d="M 14.375,13 13.3125,14 16,14 16,13 14.375,13 Z"
     id="path3901-7"
     inkscape:connector-curvature="0" />
  <path
     style="fill:#868686;fill-opacity:1;fill-rule:nonzero;stroke:none"
     d="M 10.125,7 11.1875,8 16,8 16,7 10.125,7 Z"
     id="path3899-5-9"
     inkscape:connector-curvature="0" />
  <path
     style="fill:#868686;fill-opacity:1;fill-rule:nonzero;stroke:none"
     d="M 12.25,9 13.3125,10 16,10 16,9 12.25,9 Z"
     id="path3901-7-2"
     inkscape:connector-curvature="0" />
  <path
     inkscape:connector-curvature="0"
     style="fill:#859900;fill-opacity:1"
     d="M 13.999999,11.999999 9,7 l 0,3 -5,0 0,3.999999 5,0 0,3 z"
     id="path4" />
</svg>
